resources/icons/20px/image-rotate-left.svg

<svg xmlns="http://www.w3.org/2000/svg" viewBox="0 0 20 20">
  <path d="M10.5 13c.83 0 1.5-.67 1.5-1.5s-.67-1.5-1.5-1.5-1.5.67-1.5 1.5.67 1.5 1.5 1.5M14 7H1c-.55 0-1 .45-1 1v11c0 .55.45 1 1 1h13c.55 0 1-.45 1-1V8c0-.55-.45-1-1-1m-1 10-5-3-1 2-2-4-3 4.5V9h11zm3-15h-1.59l.29-.29c.19-.18.3-.43.3-.71a1.003 1.003 0 0 0-1.71-.71l-2 2c-.18.18-.29.43-.29.71s.11.53.29.71l2 2a1.003 1.003 0 0 0 1.42-1.42l-.3-.29H16c1.1 0 2 .9 2 2v3c0 .55.45 1 1 1s1-.45 1-1V6c0-2.21-1.79-4-4-4"/>
</svg>

<?xml version="1.0" encoding="utf-8"?>
<!-- Generator: Adobe Illustrator 18.0.0, SVG Export Plug-In . SVG Version: 6.00 Build 0)  -->
<svg version="1.1" id="Layer_1" xmlns="http://www.w3.org/2000/svg" xmlns:xlink="http://www.w3.org/1999/xlink" x="0px" y="0px"
	 viewBox="0 0 20 20" enable-background="new 0 0 20 20" xml:space="preserve">
<g id="rotate_image_left_1_">
	<g>
		<path fill-rule="evenodd" clip-rule="evenodd" d="M10.5,13c0.83,0,1.5-0.67,1.5-1.5S11.33,10,10.5,10S9,10.67,9,11.5
			S9.67,13,10.5,13z M14,7H1C0.45,7,0,7.45,0,8v11c0,0.55,0.45,1,1,1h13c0.55,0,1-0.45,1-1V8C15,7.45,14.55,7,14,7z M13,17l-5-3
			l-1,2l-2-4l-3,4.5V9h11V17z M16,2h-1.59l0.29-0.29C14.89,1.53,15,1.28,15,1c0-0.55-0.45-1-1-1c-0.28,0-0.53,0.11-0.71,0.29l-2,2
			C11.11,2.47,11,2.72,11,3c0,0.28,0.11,0.53,0.29,0.71l2,2C13.47,5.89,13.72,6,14,6c0.55,0,1-0.45,1-1c0-0.28-0.11-0.53-0.29-0.71
			L14.41,4H16c1.1,0,2,0.9,2,2v3c0,0.55,0.45,1,1,1s1-0.45,1-1V6C20,3.79,18.21,2,16,2z"/>
	</g>
</g>
</svg>
